X:1
T:Title
%%score { 1 | 2 }
L:1/8
M:4/4
K:F
V:1 treble nm="Grand Piano"
V:2 bass 
V:1
 z4 z2[Q:1/4=100] c2 | d2 c2 c2 A2 | [B,EG]2 [A,F]4[K:bass] [F,_EF]2 | %3
 [F,DF]2 [F,B,D]2[K:treble] [F,DF]2 [^CG]2 | A6 c2 | d2 c2 c2 A2 | G2 F2 F2 A2 | %7
 [=B,FA]2 [B,FG]2 [B,FG]3 [B,FA] | [CEG]6 [CFA]2 | [CEB]2 [CEG]2 [CFc]2 [CEB]2 | %10
[M:3/4] [CGB]3 [CFA] [CFA]2 |[M:1/4] [CGA]2 |[M:4/4] [^Fd]2 [Fc]2 [DFB]2 [CFA]2 | [B,GB]6 [CEG]2 | %14
 [CFA]2 [CGB]2 [FAc]2 [FBd]2 | [FAc]2 [CFA]4 [CF]2 | [A,CF]4 [B,EG]4 |[M:3/4] [A,F]6 |] %18
V:2
 z4 z2 [F,A,F]2 | [F,B,F]2 [F,A,F]2 [F,A,F]2 [F,CF]2 | C,2 D,4 A,,2 | B,,2 B,,2 B,,2 [B,,F,]2 | %4
 [F,C]6 [F,A,F]2 | [F,B,F]2 [F,A,F]2 [F,A,F]2 [F,CF]2 | [E,B,C]2 [F,A,C]2 [F,A,C]2 [F,CF]2 | %7
 D,2 D,2 G,,3 G,, | C,6 F,2 | G,2 B,2 A,2 G,2 |[M:3/4] E,3 F, F,2 |[M:1/4] _E,2 | %12
[M:4/4] [D,C]2 [D,A,]2 D,2 D,2 | G,6 C,2 | F,2 F,2 F,2 F,2 | F,2 F,4 A,,2 | C,4 C,4 | %17
[M:3/4] F,,6 |] %18

